!!!OTL: ICH BIN SCHON OFT GESTIEGEN UEBER MANCHEN HOHEN SCHROTT
!!!ARE: Europa, Mitteleuropa, Deutschland, Kuhlaendchen
!!!SCT: Z0295
!!!YEM: Copyright 1995, estate of Helmut Schaffrath.
**kern
*ICvox
*Ivox
*M4/4
*k[f#]
*G:
{4b
=1
4dd
4dd
4dd
4cc
=2
2b
4a}
{8b
8b
=3
4cc
4b
4a
4b
=4
2cc
4r}
{4b
=5
4dd
4dd
8b
8cc
8dd
8b
=6
4cc
4a
2g}
=7
{4cc
4b
4g
4fn}
=8
{4d
8ff#
8ff#
4g
4a
=9
4cc
4a
4b
8b
8g
=10
2fn
4r}
{8a
8cc
=11
4b
4a
4g}
==
!!!AGN: Lyrisches Lied, Romanze, verlassene Liebe
!!!ONB: ESAC (Essen Associative Code) Database: ZUCCAL
!!!AMT: simple quadruple
!!!AIN: vox
!!!EED: Helmut Schaffrath
!!!EEV: 1.0
*-
